images/LOGOS_CLIENTES/GALICIA.svg

<svg width="128" height="36" viewBox="0 0 128 36" fill="none" xmlns="http://www.w3.org/2000/svg">
<path fill-rule="evenodd" clip-rule="evenodd" d="M-0.00195312 35.1008C-0.00195312 23.4971 -0.00195312 11.9019 -0.00195312 0.306641C42.6647 0.306641 85.3314 0.306641 127.998 0.306641C127.998 11.9019 127.998 23.4971 127.998 35.1008C85.3314 35.1008 42.6647 35.1008 -0.00195312 35.1008Z" fill="white"/>
<path fill-rule="evenodd" clip-rule="evenodd" d="M24.4085 33.731C58.4335 33.731 92.4587 33.7431 126.496 33.755C126.484 33.779 126.472 33.803 126.46 33.8273C92.4105 33.803 58.3616 33.7912 24.3242 33.779C24.3482 33.755 24.3723 33.7431 24.4085 33.731Z" fill="black"/>
<path fill-rule="evenodd" clip-rule="evenodd" d="M1.5 33.791C1.5 33.7788 1.5 33.7788 1.5 33.7788C6.99261 33.7788 12.4971 33.7788 18.0016 33.791C12.4971 33.791 6.99261 33.791 1.5 33.791Z" fill="black"/>
<path fill-rule="evenodd" clip-rule="evenodd" d="M1.50118 1.82104C1.50118 1.82104 1.50118 1.8332 1.50118 1.84507C1.50118 12.4818 1.50118 23.1303 1.50118 33.779C1.50118 33.779 1.50118 33.779 1.50118 33.7912C1.47715 33.7912 1.465 33.7912 1.45312 33.7912C1.45312 23.1304 1.45312 12.47 1.45312 1.82109C1.465 1.82109 1.47715 1.82104 1.50118 1.82104Z" fill="black"/>
<path fill-rule="evenodd" clip-rule="evenodd" d="M18.0016 33.7909C12.4971 33.7788 6.99261 33.7788 1.5 33.7788C1.5 23.1302 1.5 12.4817 1.5 1.84483C6.99261 1.83295 12.4971 1.8208 18.0016 1.8208C18.5666 1.85698 19.1436 1.89288 19.7205 1.94094C19.7686 1.98927 20.4416 2.06136 20.4897 2.10941C23.6025 2.68634 26.1383 4.14041 28.5181 6.18358C29.672 7.37364 30.5975 8.57556 31.4868 9.98157C31.7991 10.6427 32.1236 11.3036 32.4481 11.9648C32.8931 13.431 33.2295 14.7531 33.4579 16.2555C33.4697 17.0487 33.4938 17.854 33.5181 18.6591C33.4457 19.2722 33.3736 19.885 33.3137 20.4981C32.8207 22.9017 31.9554 24.957 30.6215 27.0002C29.9485 27.8776 29.9485 27.8776 29.9004 27.9859C28.1334 29.8605 26.4269 31.2069 24.1554 32.3727C23.5903 32.577 23.0377 32.7933 22.4848 33.0095C21.0304 33.4423 19.528 33.7307 18.0016 33.7909Z" fill="black"/>
<path fill-rule="evenodd" clip-rule="evenodd" d="M24.4082 33.7308C26.5113 32.7935 28.3263 31.5916 30.0569 30.0651C30.1289 29.945 30.7299 29.3802 31.7515 28.1783C32.6891 26.8681 33.5185 25.5701 34.2274 24.116C34.4318 23.5509 34.648 22.9862 34.8646 22.4333C36.0543 18.4552 35.9941 14.6091 34.7441 10.6549C34.54 10.126 34.3357 9.59738 34.1313 9.08037C32.9534 6.77291 31.5474 4.84989 29.6843 3.047C29.2035 2.63853 28.7229 2.24166 28.2421 1.84507C60.9692 1.8332 93.7082 1.82104 126.448 1.82104C126.459 1.8332 126.472 1.84507 126.496 1.85723C126.496 12.4818 126.496 23.1184 126.496 33.7548C92.4584 33.7429 58.4334 33.7308 24.4082 33.7308Z" fill="black"/>
<path fill-rule="evenodd" clip-rule="evenodd" d="M17.4373 30.4135C16.7642 25.7021 15.9951 20.9547 15.4902 16.2315C16.2353 15.8589 16.4519 15.0536 16.68 14.2963C16.8244 13.4791 17.0407 12.5776 16.9805 11.7364C15.5504 11.7723 13.9878 11.9168 12.6898 12.5417C11.0913 12.5417 10.9833 10.2821 12.6539 10.1379C14.0839 10.6908 15.5142 10.8952 17.0407 10.9432C16.9686 9.44082 16.8123 8.02265 16.2475 6.62851C16.2475 6.21976 16.3436 5.99136 16.6079 5.69088C17.5696 5.06589 18.4829 5.47464 18.6392 6.60448C18.0501 8.04668 17.9662 9.35658 17.846 10.8952C17.87 10.907 17.8941 10.9192 17.93 10.9432C19.3965 10.8711 20.8746 10.7389 22.2328 10.1379C23.8794 10.2942 23.7952 12.5417 22.1848 12.5417C20.8867 11.8927 19.2882 11.7963 17.8579 11.7604C17.954 12.6497 18.0501 15.907 19.4205 16.2433C19.3481 16.9644 19.3001 17.0125 17.9059 27.4208C17.8579 27.4688 17.4853 30.3295 17.4373 30.4135Z" fill="white"/>
<path fill-rule="evenodd" clip-rule="evenodd" d="M93.6606 27.6855C91.5573 27.493 90.1753 26.7719 88.9852 24.9812C88.8051 24.6086 88.6367 24.2361 88.4685 23.8635C87.3386 19.5007 89.4782 15.0175 94.1773 14.4768C95.4875 14.4768 96.7135 14.7894 97.9513 15.1979C97.9273 15.3782 97.9273 15.3783 97.2062 17.2651C96.8455 17.2292 96.8455 17.2292 96.0404 17.0607C95.5715 17.0607 95.1028 17.0607 94.6341 17.0607C93.6606 17.3013 92.9997 17.5896 92.3145 18.3347C90.9684 20.3058 90.74 22.974 92.7954 24.5606C93.0478 24.6807 93.3121 24.8009 93.5764 24.921C94.8023 25.0895 95.9802 25.0052 97.17 24.6327C97.4224 24.5125 97.4224 24.5125 97.5067 24.5125C97.7591 24.9934 98.2156 25.6184 98.312 26.1469C96.8577 27.0125 95.3553 27.493 93.6606 27.6855Z" fill="white"/>
<path fill-rule="evenodd" clip-rule="evenodd" d="M56.4625 12.1573C56.138 12.1573 55.8135 12.1573 55.5009 12.1573C53.3497 12.1573 51.5949 13.3952 50.4051 15.0779C50.0444 15.8471 49.8762 16.3638 49.8282 16.4121C49.3954 18.1548 49.5155 19.7412 50.0925 21.4118C50.9459 23.0465 51.8713 23.9117 53.5538 24.5607C53.9145 24.621 54.2752 24.693 54.6477 24.7651C55.4047 24.7651 56.6307 24.8612 57.2797 24.5367C57.2797 23.1906 57.2919 21.8445 57.3037 20.4984C57.3037 20.4623 57.3037 20.4623 54.215 20.4142C54.2028 19.5608 54.2028 18.7077 54.2028 17.8543C54.2028 17.8422 54.2028 17.8303 54.2028 17.8303C56.2703 17.8303 58.3494 17.8303 60.4287 17.8303C60.4287 20.6788 60.4406 23.527 60.4527 26.3876C59.8518 26.5917 59.2508 26.7961 58.662 27.0005C57.6283 27.2408 56.6669 27.4813 55.5973 27.6014C54.1308 27.6617 52.9051 27.5294 51.4988 27.1206C48.8066 26.0029 47.2081 24.1039 46.4028 21.3156C45.994 19.1162 45.994 17.2412 46.6431 15.0657C47.0758 13.9961 47.6649 13.1187 48.362 12.1935C49.6479 10.9073 50.9219 10.2583 52.6405 9.64549C55.1405 9.10445 57.5322 9.40494 59.9719 10.078C59.6836 10.8833 59.4071 11.7005 59.1307 12.518C57.496 12.2534 57.496 12.2534 56.4625 12.1573Z" fill="white"/>
<path fill-rule="evenodd" clip-rule="evenodd" d="M68.3017 14.5148C66.7587 14.5714 65.2571 15.1628 63.6946 15.7862C63.923 16.3991 64.1574 17.0235 64.3977 17.6485C65.0707 17.4323 65.7393 17.2172 66.4245 17.0128C67.1575 16.8446 68.0128 16.7938 68.758 16.938C69.9359 17.4429 69.9813 18.3796 70.0294 19.5332C67.902 19.6655 65.8983 19.7031 64.0836 20.9168C63.7107 21.3013 63.2858 21.6673 63.0215 22.1359C62.6249 23.1815 62.6735 24.0548 62.9019 25.1126C63.4907 26.3626 64.1317 27.0207 65.4298 27.5134C67.3045 27.8619 68.6144 27.1179 69.9845 25.868C70.0085 25.868 70.0306 25.886 70.0668 25.8979C70.259 27.184 70.3061 27.2319 70.3061 27.3039C71.2076 27.3039 72.1121 27.3145 73.0135 27.3264C73.0014 24.2857 72.9883 21.2427 72.9761 18.202C72.7237 16.8318 72.2932 15.9035 71.1512 15.0982C70.1733 14.634 69.2276 14.4808 68.3017 14.5148ZM70.0219 21.5077C70.0338 22.265 70.04 23.0346 70.0518 23.8038C69.5111 24.7174 68.1326 25.1464 67.135 25.2547C66.4501 25.0625 65.9815 24.8748 65.6691 24.1777C65.2604 21.678 68.2549 21.5557 70.0219 21.5077Z" fill="white"/>
<path fill-rule="evenodd" clip-rule="evenodd" d="M111.173 14.4924C109.682 14.6606 108.248 15.1644 106.902 15.8013C106.806 16.0899 107.365 17.2863 107.605 17.671C108.963 17.1662 110.104 16.8409 111.547 16.8409C111.595 16.8889 111.589 16.8943 112.07 16.9904C113.128 17.5433 113.118 18.4306 113.214 19.5483C110.618 19.7164 107.101 19.6925 106.02 22.6371C105.515 25.089 106.747 27.268 109.295 27.6406C110.858 27.6406 112.07 26.9302 113.14 25.8606C113.176 25.8484 113.216 25.8456 113.252 25.8456C113.432 27.1077 113.43 27.1086 113.514 27.3489C114.391 27.337 115.272 27.3265 116.161 27.3265C116.161 24.4539 116.156 21.5934 116.169 18.733C116.012 16.9901 115.568 15.964 114.089 14.9786C113.272 14.6541 112.918 14.6078 112.87 14.5597C112.306 14.5357 111.738 14.5165 111.173 14.4924ZM113.192 21.4928C113.192 22.286 113.203 23.096 113.214 23.9011C112.145 24.7906 110.114 26.0739 108.996 24.4994C107.819 21.8914 111.485 21.5409 113.192 21.4928Z" fill="white"/>
<path fill-rule="evenodd" clip-rule="evenodd" d="M82.6641 27.349C83.6735 27.3371 84.6832 27.325 85.7048 27.325C85.5366 27.4931 83.0485 27.349 82.6641 27.349Z" fill="black"/>
<path fill-rule="evenodd" clip-rule="evenodd" d="M113.518 27.349C114.395 27.3371 115.272 27.325 116.162 27.325C116.174 27.325 116.186 27.325 116.198 27.325C116.162 27.3371 116.126 27.349 116.09 27.373C115.224 27.3611 114.371 27.349 113.518 27.349Z" fill="black"/>
<path fill-rule="evenodd" clip-rule="evenodd" d="M70.3094 27.3008C71.2108 27.3008 72.1123 27.3129 73.0137 27.3248C70.2613 27.3248 70.2613 27.3248 70.3094 27.3008Z" fill="black"/>
<path fill-rule="evenodd" clip-rule="evenodd" d="M76.1146 8.31104C76.1146 14.6449 76.1268 20.9787 76.1386 27.3247C77.1724 27.3247 78.218 27.3247 79.2636 27.3247C78.194 27.3247 77.1243 27.3247 76.0547 27.3247C76.0666 20.9787 76.0906 14.6449 76.1146 8.31104Z" fill="black"/>
<path fill-rule="evenodd" clip-rule="evenodd" d="M100.691 27.325C101.725 27.325 102.771 27.325 103.816 27.325C100.691 27.3611 100.691 27.3611 100.691 27.325Z" fill="black"/>
<path fill-rule="evenodd" clip-rule="evenodd" d="M82.5797 14.8013C82.5797 18.9837 82.5797 23.1664 82.5797 27.3488C82.5438 27.3488 82.5438 27.3488 82.5797 14.8013Z" fill="black"/>
<path fill-rule="evenodd" clip-rule="evenodd" d="M82.5781 27.3488C82.5781 23.1664 82.5781 18.9837 82.5781 14.8013C82.5903 14.8013 82.6021 14.8013 82.6262 14.8013C83.6359 14.8013 84.6453 14.8013 85.6669 14.8013C85.679 18.9718 85.6909 23.1424 85.7031 27.3248C84.6815 27.3248 83.6718 27.337 82.6624 27.3488C82.6262 27.3488 82.6022 27.3488 82.5781 27.3488Z" fill="white"/>
<path fill-rule="evenodd" clip-rule="evenodd" d="M76.1113 8.3111C76.1113 8.28707 76.1113 8.26304 76.1113 8.23901C77.1569 8.23901 78.2028 8.23901 79.2603 8.23901C79.2603 14.5969 79.2603 20.9548 79.2603 27.3248C78.2147 27.3248 77.1691 27.3248 76.1354 27.3248C76.1235 20.9788 76.1113 14.6449 76.1113 8.3111Z" fill="white"/>
<path fill-rule="evenodd" clip-rule="evenodd" d="M100.691 27.3248C100.691 23.1542 100.691 18.9837 100.691 14.8253C101.713 14.8134 102.747 14.8013 103.78 14.8013C103.792 18.9718 103.804 23.1424 103.816 27.3248C102.771 27.3248 101.725 27.3248 100.691 27.3248Z" fill="white"/>
<path fill-rule="evenodd" clip-rule="evenodd" d="M116.16 27.3247C116.16 24.4522 116.16 21.5918 116.172 18.7314C116.172 21.5918 116.184 24.4522 116.196 27.3247C116.184 27.3247 116.172 27.3247 116.16 27.3247Z" fill="black"/>
<path fill-rule="evenodd" clip-rule="evenodd" d="M60.4518 26.3875C60.4396 23.5269 60.4277 20.6787 60.4277 17.8302C60.4277 17.818 60.4396 17.8062 60.4518 17.8062C60.4518 20.6665 60.4518 23.5269 60.4518 26.3875Z" fill="black"/>
<path fill-rule="evenodd" clip-rule="evenodd" d="M113.213 23.8997C113.202 23.0946 113.189 22.2893 113.189 21.4961C113.202 21.4961 113.213 21.508 113.238 21.5201C113.226 22.3133 113.213 23.1065 113.213 23.8997Z" fill="#EFAD84"/>
<path fill-rule="evenodd" clip-rule="evenodd" d="M54.1797 20.4141C54.1918 20.4141 54.2037 20.4141 54.2159 20.4141C57.3046 20.4621 57.3046 20.4621 57.3046 20.4983C56.2712 20.4861 55.2374 20.4861 54.2037 20.4861C54.1918 20.4621 54.1797 20.4381 54.1797 20.4141Z" fill="#EFAD7B"/>
<path fill-rule="evenodd" clip-rule="evenodd" d="M54.1797 20.4141C54.1797 19.5607 54.1918 18.7076 54.2037 17.8542C54.2037 18.7076 54.2037 19.5607 54.2159 20.4141C54.2037 20.4141 54.1918 20.4141 54.1797 20.4141Z" fill="black"/>
<path fill-rule="evenodd" clip-rule="evenodd" d="M54.2031 17.8301C54.2031 17.794 54.2031 17.794 60.453 17.8061C60.4409 17.8061 60.429 17.818 60.429 17.8301C58.3497 17.8301 56.2706 17.8301 54.2031 17.8301Z" fill="#EFAD84"/>
<path fill-rule="evenodd" clip-rule="evenodd" d="M100.691 14.8253C100.691 14.7894 100.691 14.7894 103.78 14.8013C102.747 14.8013 101.713 14.8134 100.691 14.8253Z" fill="black"/>
<path fill-rule="evenodd" clip-rule="evenodd" d="M84.0459 12.0248C82.4595 11.8326 82.0508 10.1258 83.0365 9.02029C84.5988 8.03461 86.1252 9.23653 85.6684 11.0154C85.26 11.6884 84.8153 11.9527 84.0459 12.0248Z" fill="white"/>
<path fill-rule="evenodd" clip-rule="evenodd" d="M102.157 12.0249C100.823 11.7606 100.222 10.6189 100.859 9.34493C101.628 8.47939 102.806 8.38328 103.599 9.30875C104.176 10.4988 103.815 11.5204 102.613 11.9769C102.457 11.989 102.301 12.0009 102.157 12.0249Z" fill="white"/>
<path fill-rule="evenodd" clip-rule="evenodd" d="M76.1113 8.23902C76.1235 8.20312 76.1354 8.17881 76.1594 8.15479C77.1691 8.15479 78.1907 8.15479 79.2123 8.15479C79.2244 8.17881 79.2363 8.20312 79.2603 8.23902C78.2028 8.23902 77.1569 8.23902 76.1113 8.23902Z" fill="#EFAD84"/>
<path fill-rule="evenodd" clip-rule="evenodd" d="M1.5 1.84483C1.5 1.83295 1.5 1.8208 1.5 1.8208C6.99261 1.8208 12.4971 1.8208 18.0016 1.8208C12.4971 1.8208 6.99261 1.83296 1.5 1.84483Z" fill="black"/>
<path fill-rule="evenodd" clip-rule="evenodd" d="M28.2422 1.84508C28.2422 1.80918 28.2422 1.80918 126.448 1.82105C93.7086 1.82105 60.9693 1.83321 28.2422 1.84508Z" fill="black"/>
</svg>

<svg width="128" height="36" fill="none" xmlns="http://www.w3.org/2000/svg"><path fill-rule="evenodd" clip-rule="evenodd" d="M-.002 35.1V.308h128V35.1h-128Z" fill="#fff"/><path fill-rule="evenodd" clip-rule="evenodd" d="M24.409 33.731c34.025 0 68.05.012 102.087.024l-.036.072c-34.05-.024-68.098-.036-102.136-.048a.194.194 0 0 1 .084-.048ZM1.5 33.791v-.012c5.493 0 10.997 0 16.502.012H1.5Z" fill="#000"/><path fill-rule="evenodd" clip-rule="evenodd" d="M1.501 1.821V33.791h-.048V1.821h.048Z" fill="#000"/><path fill-rule="evenodd" clip-rule="evenodd" d="M18.002 33.79c-5.505-.011-11.01-.011-16.502-.011V1.845c5.493-.012 10.997-.024 16.502-.024.565.036 1.142.072 1.719.12.048.048.72.12.769.168 3.113.577 5.648 2.031 8.028 4.075a22.749 22.749 0 0 1 2.969 3.798c.312.66.637 1.322.961 1.983.445 1.466.782 2.788 1.01 4.29.012.794.036 1.599.06 2.404a91.863 91.863 0 0 0-.204 1.84c-.493 2.403-1.359 4.458-2.692 6.501-.674.878-.674.878-.722.986-1.767 1.874-3.473 3.22-5.745 4.387-.565.204-1.117.42-1.67.637-1.455.432-2.957.72-4.483.78Z" fill="#000"/><path fill-rule="evenodd" clip-rule="evenodd" d="M24.408 33.73c2.103-.936 3.918-2.138 5.649-3.665.072-.12.673-.685 1.695-1.887.937-1.31 1.767-2.608 2.475-4.062.205-.565.421-1.13.638-1.683 1.19-3.978 1.13-7.824-.12-11.778-.205-.529-.41-1.058-.614-1.575-1.178-2.307-2.584-4.23-4.447-6.033-.48-.408-.961-.805-1.442-1.202 32.727-.012 65.466-.024 98.206-.024a.153.153 0 0 0 .048.036v31.898c-34.038-.012-68.063-.024-102.088-.024Z" fill="#000"/><path fill-rule="evenodd" clip-rule="evenodd" d="M17.437 30.413c-.673-4.71-1.442-9.458-1.947-14.181.745-.373.962-1.178 1.19-1.936.144-.817.36-1.718.3-2.56-1.43.036-2.992.18-4.29.806-1.599 0-1.707-2.26-.036-2.404 1.43.553 2.86.757 4.387.805-.072-1.502-.229-2.92-.794-4.314 0-.41.097-.638.36-.938.963-.625 1.876-.216 2.032.913-.589 1.443-.673 2.753-.793 4.291a.656.656 0 0 1 .084.048c1.466-.072 2.945-.204 4.303-.805 1.646.156 1.562 2.404-.048 2.404-1.298-.65-2.897-.746-4.327-.782.096.89.192 4.147 1.563 4.483-.073.721-.12.77-1.515 11.178-.048.048-.42 2.909-.469 2.992ZM93.66 27.686c-2.103-.193-3.485-.914-4.675-2.705-.18-.372-.348-.745-.516-1.118-1.13-4.362 1.01-8.845 5.708-9.386 1.31 0 2.536.312 3.774.72-.024.181-.024.181-.745 2.068-.36-.036-.36-.036-1.166-.204h-1.406c-.973.24-1.634.529-2.32 1.274-1.346 1.97-1.574 4.639.481 6.226.253.12.517.24.781.36a8.093 8.093 0 0 0 3.594-.288c.252-.12.252-.12.337-.12.252.48.709 1.105.805 1.634-1.454.866-2.957 1.346-4.651 1.539ZM56.462 12.157h-.961c-2.151 0-3.906 1.238-5.096 2.92-.36.77-.529 1.287-.577 1.335-.433 1.743-.313 3.33.264 5 .854 1.635 1.78 2.5 3.462 3.149.36.06.721.132 1.094.204.757 0 1.983.096 2.632-.228 0-1.346.012-2.692.024-4.039 0-.036 0-.036-3.089-.084-.012-.853-.012-1.706-.012-2.56v-.024h6.226c0 2.849.012 5.697.024 8.558-.601.204-1.202.408-1.791.612-1.034.24-1.995.481-3.065.601-1.466.06-2.692-.072-4.098-.48-2.692-1.118-4.29-3.017-5.096-5.805-.409-2.2-.409-4.075.24-6.25.433-1.07 1.022-1.947 1.719-2.873 1.286-1.286 2.56-1.935 4.279-2.548 2.5-.54 4.891-.24 7.33.433-.287.805-.564 1.623-.84 2.44-1.635-.265-1.635-.265-2.669-.36ZM68.302 14.515c-1.543.056-3.045.648-4.607 1.271.228.613.462 1.237.703 1.862.673-.216 1.341-.43 2.026-.635.733-.168 1.589-.22 2.334-.075 1.178.505 1.223 1.442 1.271 2.595-2.127.133-4.13.17-5.945 1.384-.373.384-.798.75-1.063 1.219-.396 1.046-.348 1.919-.12 2.977.59 1.25 1.23 1.908 2.529 2.4 1.874.349 3.184-.395 4.554-1.645.025 0 .047.018.083.03.192 1.286.24 1.334.24 1.406.9 0 1.805.01 2.706.022l-.037-9.124c-.252-1.37-.683-2.299-1.825-3.104a5.985 5.985 0 0 0-2.85-.583Zm1.72 6.993c.012.757.018 1.527.03 2.296-.54.913-1.92 1.342-2.917 1.45-.685-.192-1.154-.38-1.466-1.076-.409-2.5 2.586-2.622 4.353-2.67ZM111.173 14.492c-1.491.169-2.925.672-4.271 1.31-.096.288.463 1.484.703 1.869 1.358-.505 2.499-.83 3.942-.83.048.048.042.053.523.15 1.058.552 1.048 1.44 1.144 2.557-2.596.168-6.113.145-7.194 3.09-.505 2.451.727 4.63 3.275 5.003 1.563 0 2.775-.71 3.845-1.78a.354.354 0 0 1 .112-.015c.18 1.262.178 1.263.262 1.503.877-.012 1.758-.023 2.647-.023 0-2.872-.005-5.733.008-8.593-.157-1.743-.601-2.769-2.08-3.754-.817-.325-1.171-.371-1.219-.42-.564-.023-1.132-.042-1.697-.067Zm2.019 7c0 .794.011 1.604.022 2.41-1.069.889-3.1 2.172-4.218.597-1.177-2.608 2.489-2.958 4.196-3.006Z" fill="#fff"/><path fill-rule="evenodd" clip-rule="evenodd" d="M82.664 27.349c1.01-.012 2.02-.024 3.04-.024-.167.168-2.655.024-3.04.024ZM113.518 27.349c.877-.012 1.754-.024 2.644-.024h.036c-.036.012-.072.024-.108.048-.866-.012-1.719-.024-2.572-.024ZM70.31 27.3c.9 0 1.802.013 2.704.025-2.753 0-2.753 0-2.705-.024ZM76.115 8.311c0 6.334.012 12.668.024 19.014h3.125-3.21c.013-6.346.037-12.68.06-19.014ZM100.691 27.325h3.125c-3.125.036-3.125.036-3.125 0ZM82.58 14.801V27.35c-.036 0-.036 0 0-12.548Z" fill="#000"/><path fill-rule="evenodd" clip-rule="evenodd" d="M82.578 27.349V14.8h3.088l.037 12.524c-1.022 0-2.031.012-3.04.024h-.085ZM76.111 8.311V8.24h3.15v19.086h-3.126c-.011-6.346-.024-12.68-.024-19.014ZM100.691 27.325v-12.5c1.022-.012 2.056-.024 3.089-.024l.036 12.524h-3.125Z" fill="#fff"/><path fill-rule="evenodd" clip-rule="evenodd" d="M116.16 27.325c0-2.873 0-5.733.012-8.594 0 2.86.012 5.721.024 8.594h-.036ZM60.452 26.387c-.012-2.86-.024-5.708-.024-8.557 0-.012.012-.024.024-.024v8.581Z" fill="#000"/><path fill-rule="evenodd" clip-rule="evenodd" d="M113.213 23.9c-.011-.805-.024-1.61-.024-2.404.013 0 .024.012.049.024-.012.793-.025 1.587-.025 2.38Z" fill="#EFAD84"/><path fill-rule="evenodd" clip-rule="evenodd" d="M54.18 20.414h.036c3.089.048 3.089.048 3.089.084-1.034-.012-2.068-.012-3.101-.012-.012-.024-.024-.048-.024-.072Z" fill="#EFAD7B"/><path fill-rule="evenodd" clip-rule="evenodd" d="M54.18 20.414c0-.853.012-1.706.024-2.56 0 .854 0 1.707.012 2.56h-.036Z" fill="#000"/><path fill-rule="evenodd" clip-rule="evenodd" d="M54.203 17.83c0-.036 0-.036 6.25-.024a.026.026 0 0 0-.024.024h-6.226Z" fill="#EFAD84"/><path fill-rule="evenodd" clip-rule="evenodd" d="M100.691 14.825c0-.036 0-.036 3.089-.024-1.033 0-2.067.012-3.089.024Z" fill="#000"/><path fill-rule="evenodd" clip-rule="evenodd" d="M84.046 12.025c-1.587-.192-1.995-1.9-1.01-3.005 1.563-.985 3.09.217 2.632 1.995-.408.673-.853.938-1.622 1.01ZM102.157 12.025c-1.334-.264-1.935-1.406-1.298-2.68.769-.866 1.947-.962 2.74-.036.577 1.19.216 2.211-.986 2.668-.156.012-.312.024-.456.048Z" fill="#fff"/><path fill-rule="evenodd" clip-rule="evenodd" d="M76.111 8.239a.197.197 0 0 1 .048-.084h3.053c.012.024.024.048.048.084h-3.149Z" fill="#EFAD84"/><path fill-rule="evenodd" clip-rule="evenodd" d="M1.5 1.845V1.82h16.502c-5.505 0-11.01.012-16.502.024ZM28.242 1.845c0-.036 0-.036 98.206-.024-32.74 0-65.479.012-98.206.024Z" fill="#000"/></svg>
